#include "stdosl.h"

shader phongbsdf(
	color Color = color(0.8, 0.8, 0.8),
	float Exponent = 0.0,
	normal Normal = N,
	output closure color BSDF = diffuse(Normal)
)
{
BSDF = Color*phong(Normal, Exponent);

}
